!!!!SEGMENT: pl-sa--573-a-ix-53--007_naumann-johann-gottlieb-marsz.krn
!!!id: 18xx:608
!!!COM: Naumann, Johann Gottlieb
!!!OTL: Marsz
!!!PDT:
!!!SMS-siglum: PL-SA
!!!SMS-shelfmark: 573/A IX 53
!!!NIFC-rismID: 1001077512
!!!URL-scan: http://bc.bdsandomierz.pl/dlibra/publication/1379/edition/1347/content
!!!ONB-nifc: Str. 13
!!!SMS-variant:
!!!SMS-altvar:
**kern	**kern
*part2	*part1
*I'keyb	*
*staff2	*staff1
*clefF4	*clefG2
*k[]	*k[]
*M2/4	*M2/4
=1	=1
*2\right	*2\right
!	!LO:TX:a:i:t=Marsz
4c 4E 4C\	4ccc 4ee\
4G 4GG/	4gg 4ee\
=2	=2
16E\LL	16ee\LL
16F\	16ff\
16G\	16gg\
16E\JJ	16ee\JJ
8C/L	8cc/L
8GG/J	8g/J
=3	=3
8EL 8C/	8ccL 8e/
8EJ 8C/	8ccJ 8e/
8DL 8GG/	8ddL 8b 8g/
8DJ 8GG/	8ddJ 8b 8g/
=4	=4
16C/LL	16eeLL 16cc\
16GG/	16dd 16b\
16C/	16ee 16cc\
16D/JJ	16ffJJ 16dd\
4G\	4gg 4ee\
=5	=5
!	!LO:TX:a:t=P:problem:znak początku repetycji
16F\LL	8aaL 8ff\
16c\	.
16A\	8aaJ 8ff\
16c\JJ	.
*rep	*
16F\LL	16aaLL 16ff\
16c\	16ccc 16aa\
16A\	16bb 16gg\
16c\JJ	16aaJJ 16ff\
*Xrep	*
=6	=6
16E\LL	8ggL 8ee\
16c\	.
16G\	8ggJ 8ee\
16c\JJ	.
*rep	*
16E\LL	4gg 4ee\
16c\	.
16G\	.
16c\JJ	.
*Xrep	*
!	!LO:TX:a:t=P:problem:znak końca repetycji
=7	=7
!	!LO:TX:a:t=P:problem:rozpisana repetycja takty 7-8
16F\LL	8aaL 8ff\
16c\	.
16A\	8aaJ 8ff\
16c\JJ	.
*rep	*
16F\LL	16aaLL 16ff\
16c\	16ccc 16aa\
16A\	16bb 16gg\
16c\JJ	16aaJJ 16ff\
*Xrep	*
=8	=8
16E\LL	8ggL 8ee\
16c\	.
16G\	8ggJ 8ee\
16c\JJ	.
*rep	*
16E\LL	4gg 4ee\
16c\	.
16G\	.
16c\JJ	.
*Xrep	*
=9	=9
8GG\L	8.ffL 8.dd\
8G 8GG\	.
.	16eeJk 16cc\
8F#X\	8ddL 8b\
8G\J	8eeJ 8cc\
=10	=10
8GL 8GG\	8.ffL 8.dd\
8G\	.
.	16eeJk 16cc\
8F#X\	8ddL 8b\
8G\J	8eeJ 8cc\
=11	=11
!	!LO:TX:a:t=P:problem:znak początku repetycji
16F\LL	8aaL 8ff\
16c\	.
16A\	8aaJ 8ff\
16c\JJ	.
*rep	*
16F\LL	16aaLL 16ff\
16c\	16ccc 16aa\
16A\	16bb 16gg\
16c\JJ	16aaJJ 16ff\
*Xrep	*
!!LO:LB:g=original
=12	=12
16E\LL	8ggL 8ee\
16c\	.
16G\	8ggJ 8ee\
16c\JJ	.
*rep	*
16E\LL	4gg 4ee\
16c\	.
16G\	.
16c\JJ	.
*Xrep	*
!	!LO:TX:a:t=P:problem:znak końca repetycji
=13	=13
!	!LO:TX:a:t=P:problem:rozpisana repetycja t. 13-14
16F\LL	8aaL 8ff\
16c\	.
16A\	8aaJ 8ff\
16c\JJ	.
*rep	*
16F\LL	16aaLL 16ff\
16c\	16ccc 16aa\
16A\	16bb 16gg\
16c\JJ	16aaJJ 16ff\
*Xrep	*
=14	=14
16E\LL	8ggL 8ee\
16c\	.
16G\	8ggJ 8ee\
16c\JJ	.
*rep	*
16E\LL	4gg 4ee\
16c\	.
16G\	.
16c\JJ	.
*Xrep	*
=15	=15
4G\ 4GG\	8.ffL 8.dd\
.	16eeJk 16cc\
8r	8ddL 8b\
8G 8GG\	8eeJ 8cc\
=16	=16
4G 4GG\	8.ffL 8.dd\
.	16eeJk 16cc\
8r	8ddL 8b\
8G 8GG/	8eeJ 8cc\
=17	=17
8C\L	16ff\LL
.	16gg\
8F\J	16aa\
.	16ff\JJ
!LO:TX:a:t=P:problem:mixed beam	!
8G\L	8ee 8cc\
8GG/J	8dd 8g/
=18	=18
8CL 8GG 8CC/	8ccL 8a 8e 8c/
8CJ 8GG 8CC/	8ccJ 8g 8e 8c/
4C 4GG 4CC/	4cc 4g 4e 4c/
=19:|!|:	=19:|!|:
*k[b-]	*k[b-]
*M2/4	*M2/4
*tremolo	*
!	!LO:TX:a:i:t=Trio
8F 8C 8AA/L	4.aa 4.ff\
8F 8C 8AA/	.
8F 8C 8AA/	.
8F 8C 8AA/J	8ccc 8aa\
=20	=20
*rep	*
!LO:TX:a:t=P:problem:brak oznaczeń cyfrowych nad powtórzeniami	!
8F 8C 8AA/L	4.ccc 4.aa\
8F 8C 8AA/	.
8F 8C 8AA/	.
8F 8C 8AA/J	16bb-LL 16gg\
.	16aaJJ 16ff\
*Xrep	*
=21	=21
8c 8G 8C\L	8ggL 8ee\
8c 8G 8C\	8ggJ 8ee\
8c 8G 8C\	16ggLL 16ee\
.	16bb- 16gg\
8c 8G 8C\J	16aa 16ff\
.	16ggJJ 16ee\
*Xtremolo	*
=22	=22
8FL 8C 8AA\	16ffLL 16dd\
.	16ee 16cc\
8FJ 8C 8AA\	16ff 16dd\
.	16aaJJ 16ff\
*tremolo	*
!LO:TX:a:t=||:problem	!
8G 8E 8C\L	8ggL 8ee\
8G 8E 8C\J	8ggJ 8ee\
*Xtremolo	*
!!LO:LB:g=original
=23	=23
*tremolo	*
8F 8C 8AA/L	4.aa 4.ff\
8F 8C 8AA/	.
8F 8C 8AA/	.
8F 8C 8AA/J	8ccc 8aa\
=24	=24
*rep	*
8F 8C 8AA/L	4.ccc 4.aa\
8F 8C 8AA/	.
8F 8C 8AA/	.
8F 8C 8AA/J	16bb-LL 16gg\
.	16aaJJ 16ff\
*Xrep	*
*Xtremolo	*
=25	=25
8C\L	8ggL 8ee\
8F\	8aa 8ff\
8G\	8bb- 8gg\
8F\J	8aaJ 8ff\
=26	=26
8C\L	4aa 4ff\
8c\J	.
4C 4CC/	8gg 8ee\
.	8r
=27:|!|:	=27:|!|:
*tremolo	*
!LO:TX:a:t=P:problem:kaudy z prawej strony	!
8C\L	4.gg 4.ee\
8c\	.
8C\	.
8c\J	8ff 8dd\
=28	=28
*rep	*
8C\L	16eeLL 16cc\
.	16ff 16dd\
8c\	16gg 16ee\
.	16aaJJ 16ff\
!	!LO:TX:i:a:t=gh
8C\	8bb-L 8gg\
8c\J	8aaJ 8ff\
*Xrep	*
=29	=29
*rep	*
8C\L	4.gg 4.ee\
8c\	.
8C\	.
8c\J	8ff 8dd\
*Xrep	*
=30	=30
*rep	*
8C\L	16ee\LL
.	16dd\
8c\	16ee\
.	16ff\JJ
8C\	4gg 4ee\
8c\J	.
*Xrep	*
=31	=31
*rep	*
8C\L	4.ccc 4.aa\
8c\	.
8C\	.
8c\J	16bb-LL 16gg\
.	16aaJJ 16ff\
*Xrep	*
*Xtremolo	*
=32	=32
*tremolo	*
!LO:TX:a:t=||:problem	!
8F 8C 8AA\L	8aa\L
8F 8C 8AA\J	16bb-\L
.	16aa\JJ
*Xtremolo	*
*tremolo	*
!LO:TX:a:t=||:problem	!
8G 8E 8C\L	8ggL 8cc\
8G 8E 8C\J	8ggJ 8cc\
*Xtremolo	*
=33	=33
8F\L	8ffL 8a\
8C\J	8aaJ 8cc\
4FF/	4ff 4a\
==	==
*-	*-
!!!system-decoration: [(s1,s2)]
!!!RDF**kern: > = above
!!!RDF**kern: < = below
!!!ENC: Berenika Jozajtis
!!!END: 2020-06-19
!!!EED: Mateusz Mrugas
!!!EST: 2020-12-10
